packages/react-icons/icons/airplane-filled.svg

<svg width="24" height="25" viewBox="0 0 24 25" xmlns="http://www.w3.org/2000/svg"><path d="M18.7504 4.84707C19.3036 4.68092 19.8194 5.19677 19.6533 5.74995L19.1088 7.56295C19.0594 7.7276 18.965 7.87522 18.8363 7.98923L16.4576 10.0968L18.2816 16.548C18.4093 16.9998 18.2831 17.4853 17.9517 17.8178C17.6417 18.1286 17.1229 18.0686 16.8922 17.6951L13.7048 12.5359L10.5808 15.3039L11.1101 18.509C11.1902 18.9941 11.0315 19.4881 10.6838 19.8358L10.5477 19.9719C10.1976 20.3221 9.60715 20.2259 9.38623 19.7827L7.8331 16.6667L4.71713 15.1136C4.2739 14.8926 4.17771 14.3022 4.5279 13.9521L4.66398 13.816C5.01167 13.4683 5.50568 13.3096 5.99081 13.3897L9.19695 13.9192L11.9647 10.7955L6.80467 7.60765C6.43124 7.37695 6.37117 6.85806 6.68202 6.54814C7.0145 6.21666 7.50005 6.09051 7.95183 6.21824L14.4039 8.04243L16.5112 5.66406C16.6252 5.53539 16.7728 5.44103 16.9374 5.39158L18.7504 4.84707Z"/></svg>

<svg xmlns="http://www.w3.org/2000/svg" width="24" height="25"><path d="M18.75 4.847a.725.725 0 0 1 .903.903l-.544 1.813a.924.924 0 0 1-.273.426l-2.378 2.108 1.824 6.451c.127.452.001.937-.33 1.27a.68.68 0 0 1-1.06-.123l-3.187-5.16-3.124 2.769.53 3.205c.08.485-.08.98-.427 1.327l-.136.136a.725.725 0 0 1-1.162-.19l-1.553-3.115-3.116-1.553a.725.725 0 0 1-.19-1.162l.137-.136a1.525 1.525 0 0 1 1.327-.426l3.206.53 2.768-3.124-5.16-3.188a.68.68 0 0 1-.123-1.06 1.298 1.298 0 0 1 1.27-.33l6.452 1.824 2.107-2.378a.925.925 0 0 1 .426-.272l1.813-.545Z"/></svg>
